X: 1
T: Wooing Mairi
C: Eric Scott, Princeton, New Jersey
N: For Jan Alter and Anett Petrich
N: This tune was intended to medley with the standard Mairi's Wedding song.
R: reel
Z: 2012 John Chambers <jc:trillian.mit.edu>
M: C
L: 1/8
K: G
"D"DE "A1"|\
"G"G2 B2  "Bm7"AF "C"GE | "G"DD "D"D/E/F "G"G2 DE |\
"C"G2 c2 "B"d>B "Em"AG | "Am"EE GE "D"D2 ||
DE "A2"|\
"G"G2 "D"A2 "Em"B2 "D"GA | "C"e>e "G"dB "D"A2 BA |\
"C"G2 e2 "Bm"d>B "Em"G/A/B/c/ | "Bm"dd "A"e^c "D"d2 d2 |][K:=f][K:F]
"B1"|\
"F"f>f "C"ec "Bb"Bd "F"cA | "Gm"GB "F"AF "Gm"GD "C"Ec |\
"Dm"f>f "Am"ec "Gm"Bd "Am"c<A | "G"G=B "Am"AE "A"G/^F/E "D"DE ||[K:=B][K:G]
"B2"|\
"G"G2 "D"A2 "Em"B2 "D"GA | "C"e>e "G"dB "D"A2 GA |\
"G"B2 d2 "C"ec de/f/ | "G"gd "D"B<A "G"G2 |]
